X:35
T:Prince Eugene's March. BC.35
M:C|
L:1/4
Q:100
S:Benjamin Cooke MS.circa 1770, F.Kidson Coll.
R:March
O:England
A:x
Z:vmp.John Bagnall
K:D
F2 A2 | d3 f/g/ | a f d f | e/d/e/f/ e A | F2 A2| d3 e | f/^g/ a Ta>^g | a4 ||
e e/e/ e e |e2 z z | f f/f/ f f | f2 z z | a a/g/ f f/e/ | d d A A  | a a/g/ f f/e/ | d d A A | D D/D/ D F |
D D/D/ D f/g/ | a d/e/ f f/g/ | a d/e/ f f/g/ |a g/f/ e>d | d4 |]

